X:90
T:Dark Girl Dressed in Blue
M:2/4
L:1/8
Q:240
R:polka
Z:Philippe Varlet
K:D
FA Ad|Bd A>F|GB AF/A/|(BE) G/F/E/D/|
FA Ad|Bd A>F|GB A/B/A/G/|FD D>E :||
FA A/B/d/e/|f>d ed|Bd AF/A/|(BE) G/F/E/D/|
FA A/B/d/e/|f>d ed|Bd A/B/A/G/|FD D>E :||

